X: 1
T: Three Steps Forward (Two Steps Back)
C: Matthew Heaton
Z: Zina Lee
S: https://thesession.org/tunes/349#setting349
R: reel
M: 4/4
L: 1/8
K: Gmaj
|:deee BdAd|GBAc Bed2|EGBe fage|dBA^F _E^FAB|
deee BdAd|GBAc Bed2|EGBe fage|1 dBA^d e4:|2 dBA^d e2ef||
|:g3f gecd|ecAc e4|EFGA Begf|afge ^d2 ef|
g3f gecd|ecAc e3D|EGFA GBef|gfed eBef:|

%-------------------- TUNE SEPARATOR --------------------%

